X: 1
T:Chris Anderson
M:C|
L:1/8
Q:80
C:Bob Worrall
S:Hornpipe
K:HP
|: {g}d/2e/2|
{g}f/2a/2g/2f/2{g}e/2g/2{a}f/2e/2|
{g}d/2e/2{gefe}f{g}d{g}e/2f/2|  !
{a}g/2B/2{G}B/2g/2{a}f/2e/2{g}d/2f/2|
{gef}e{g}A{GAG}A{g}d/2e/2{g}f/2a/2g/2f/2{g}e/2g/2{a}f/2e/2|
{g}d/2e/2{gefe}f{g}d{g}e/2f/2|  !
{a}g/2B/2{G}B/2f/2{g}e/2A/2{g}f/2e/2|
{Gdc}d2{gdG}d:| |:
{g}d/2e/2|  !
{g}f/2a/2{g}a/2g/2a/2d/2{c}d/2c/2|
{g}B/2g/2{f}g/2a/2{fg}f{g}d/2c/2|
{g}B/2g/2{f}g/2e/2{g}f/2e/2{g}d/2a/2|  !
{ef}e{g}A{GAG}A{g}d/2e/2|1 {g}f/2a/2{g}a/2g/2a/2d/2{c}d/2c/2|
{g}B/2g/2{f}g/2a/2{fg}f{g}e/2f/2|
{a}g/2B/2{G}B/2f/2{g}e/2A/2{g}f/2e/2|  !
{Gdc}d2{gdG}d:| |:
{g}d/2e/2|
{g}f/2A/2{gAGAG}A{g}B/2A/2{gAGAG}A|  !
{g}d/2c/2{g}d/2e/2{g}f/2A/2{gAGAG}A|
{a}g/2B/2{gBeBG}B{g}B/2a/2g/2f/2|
{gef}e{g}A{GAG}A{g}d/2e/2{g}f/2A/2{gAGAG}A{g}B/2A/2{gAGAG}A|  !
{g}d/2c/2{g}d/2e/2{g}f/2A/2{gAGAG}A|
{a}g/2B/2{G}B/2f/2{g}e/2A/2{g}f/2e/2|
{Gdc}d2{gdG}d:| |:  !
{g}d/2e/2|
{g}f/2a/2{g}a/2g/2a/2d/2{gdedc}d|
{g}f/2a/2g/2e/2{g}f/2d/2{gdedc}d|  !
{gBd}B3/2g/2a/2f/2{g}d/2f/2|
{gef}e{g}A{GAG}A{g}d/2e/2|1 {g}f/2a/2{g}a/2g/2a/2d/2{gdedc}d|
{g}f/2a/2g/2e/2{gfg}f{ag}a|  !
g/2B/2{G}B/2f/2{g}e/2A/2{g}f/2e/2|
{Gdc}d2{gdG}d:|
